X: 1956
T: Yalnız Bir Ben miyim
C: Ahmet Avni Konuk
O: Turkey
F: http://compmusic.upf.edu/node/140
N: hicaz-humayun--kupe--duyek--yalniz--ahmet_avni_konuk
N: makam= hicaz-humayun
N: form= kupe
N: usul= duyek = 8/4
M: 8/4
L: 1/16
K: C _7/8B ^c  
Q: 1/4=57
%%MIDI tuningsystem comma53
z4 =B2c2 B4 c4 d4 c2e2 d3c d4  | z4 e2f2 e2f2 e2d2 g2f2 e2d2 e3d ^3/4c4  | 
w:  Yal *  *  *  nız  *  *  bir   |  ben  *  *  *  mi *  yim  *  *  *  ey   | 
z4 c2=B2 c4 d4 e2d2 ^3/4c2_7/8B2 c3B A4  | \
w:  şâh_ *  *  ı  mef *  *  *  tû  | 
z4 B3A G4 e2f2 e2d2 {e}d2^3/4c2 d6z2  | 
w:  nun  *  *  se *  nin    | 
z4 d8 d4 ^3/4c2d2 {e}d2c2 c2B2 A2B2  | \
w:  Ol du  câ *  *  *  *  rî   | 
^3/4c4 c2B2 c4 e2f2 e2d2 c2B2 c3B A4  | 
w:  *  â *  *  le *  me  *  *  *  emr_  | 
z4 A2B2 B4 B2A2 B2A2 B2^3/4c2 d2c2 B2A2  | \
w:  i  *  *  Hü *  mâ *  *  *  yû  | 
G4 A2B2 B2A2 d2^3/4c2 c2B2 B2A2 A6z2  | 
w:  *  nun  *  *  *  se *  nin    | 
|


